X: 1
T: Rogue's March
S: http://lesters-tune-a-day.blogspot.co.uk/2013/02/tune-160-rogues-march.html
M: 6/8
L: 1/8
K: G
|:\
B2B Bcd | e2e e3 | d2d d2e | d2c B2A |\
B2B Bcd | e2e e3 | def gdB | ABA G3 :|
|:\
g3  f3  | e3  d3 | g3  f3  | efe d2c |\
B2B Bcd | e2e e3 | def gdB | ABA G3 :|
